X:1
T:Central Church, 11.10.11.10.10.10
T:Central Church, 11.10.11.10.10.10
T:William Pierson Merrill, 1895
T:Public Domain Courtesy of the Cyber Hymnal™
C:William Pierson Merrill, 1895
Z:Public Domain
Z:Courtesy of the Cyber Hymnal™
%%score ( 1 2 ) ( 3 4 )
L:1/8
Q:1/4=115
M:4/4
K:D
V:1 treble 
V:2 treble 
V:3 bass 
V:4 bass 
V:1
 [DA]4 [CF]2 [CE]2 | [B,D]6 [B,D]2 x2 | [B,E]2 [^DF]2 [EG]2 [EB]2 | [EB]4 [FA]4 | %4
 [^DB]4 [DG]2 [DF]2 | E6 [^DF]2 | [EG]2 [EA]2 [GB]2 [Gd]2 | (d4 c4) | [Ad]4 [Gc]2 [GB]2 | %9
 A6 z2 A2 | [Gc]2 [FB]2 [EA]2 [DG]2 | [CF]4 [CF]4 | F4 [F^G]2 [E^A]2 | [DB]2 [Ec]2 [Dd]2 [^Ae]2 | %14
 [Af]4 ([Ae]2 [^Gd]2) | e8 | [Fd]4 [Gc]2 [GB]2 | A6 [EA]2 | [DB]2 [DA]2 [EG]2 [DF]2 | %19
 ([DF]4 [CE]4) | D4 [CE]2 [DF]2 | [DG]2 [FA]2 [GB]2 [Ed]2 | d4 c4 | [Fd]8 |] %24
V:2
 x8 | x10 | x8 | x8 | x8 | E6 x2 | x8 | G8 | x8 | (G2 E2) F4 x2 | x8 | x8 | F4 x4 | x8 | x8 | %15
 (A4 G4) | x8 | (G2 E2 F2) x2 | x8 | x8 | D4 x4 | x8 | (F2 E2) (A2 G2) | x8 |] %24
V:3
 [D,F,]4 [A,,A,]2 [A,,G,]2 | F,6 z2 F,2 | [G,,B,]2 [B,,B,]2 [E,B,]2 [D,G,]2 | [C,G,]4 F,4 | %4
 [B,,F,]4 [B,,B,]2 [B,,A,]2 | [E,G,]6 [B,,B,]2 | [E,B,]2 [F,B,]2 [G,E]2 [B,E]2 | E8 | %8
 [F,D]4 [E,A,]2 [D,B,]2 | [C,C]4 [D,A,]4 x2 | [A,,E]2 [B,,D]2 [C,C]2 [E,B,]2 | [F,^A,]4 [E,A,]4 | %12
 [D,B,]4 [D,B,]2 [C,F,]2 | [B,,F,]2 [^A,,F,]2 [B,,F,]2 [C,=A,]2 | (A,2 B,2) (C2 B,2) | %15
 (D2 C2 B,2 C2) | [D,A,]4 [E,A,]2 [D,B,]2 | ([C,C]4 A,4) | G,2 [F,A,]2 [C,A,]2 [D,A,]2 | A,8 | %20
 [F,A,]4 [E,A,]2 [D,A,]2 | [B,,B,]2 [A,,D]2 [G,,D]2 [G,B,]2 | A,4 [A,,A,]4 | [D,A,]8 |] %24
V:4
 x8 | B,,4 A,,4 x2 | x8 | x4 (D,2 C,2) | x8 | x8 | x8 | (A,6 G,2) | x8 | x10 | x8 | x8 | x8 | x8 | %14
 D,4 E,4 | A,,8 | x8 | x4 D,2 F,2 | G,2 x6 | (A,,4 A,2 G,2) | x8 | x8 | A,4 x4 | x8 |] %24

